!!!OTL: Renxin qixiang gongchandang
!!!ARE: Asia, China,ÿJiangsu Rugao
!! III, 427
!!!SCT: C1778
!!!YEM: Copyright 1995, estate of Helmut Schaffrath.
**kern
*ICvox
*Ivox
*M2/4
*k[f#]
*G:
{8a
8dd
8dd
16b
16a
=1
16dd
16b
16b
16a
16g
16e
16g
16a
=2
16dd
16b
4.a}
=3
{8a
8dd
8dd
16b
16a
=4
16dd
16b
16b
16a
16g
16e
16g
16a
=5
16dd
16b
4.a}
=6
{16d
8d
16e
8g
16g
16e
=7
16a
16dd
16b
16dd
8g
8g}
=8
{8a
16dd
16b
16a
16b
16a
16f#
=9
16a
16b
16a
16d
8e
8e}
=10
{16d
16B
16d
16e
4d
=11
16a
16b
16a
16f#
8e
8e}
=12
{16a
16b
16a
16f#
16f#
16e
16d
16f#
=13
2e}
==
!!!AGN: Wuge, Daohualan
!!!AMT: simple duple
!!!AIN: vox
!!!EED: Helmut Schaffrath
!!!EEV: 1.0
*-
